!!!COM: Johannes Brahms
!!!CNT: Deutscher
!!!TXO: Deutsche
!!!OTL: Die Liebende schreibt
!!!OPS: Op. 47
!!!ONM: No. 5
!!!LYR: Goethe
!!!ONB: Original key: Eb major
!!!ENC: Ayako Kataoka
!!!EED: Leigh VanHandel
!!!YOR: C.F. Peters, Brahms Lieder fu2r eine Singstimme mit Klavierbegleitung, Band III, ausgabe fu2r tiefere Stimme
!!!ODT: 1858/
!!NB: Vocal melody and text only encoded.
**kern	**silbe
*clefG2	*
*k[b-e-a-d-g-]	*
*M6/8	*
*[lento]	*
=1-	=1-
4.r	.
4r	.
{8b-	{Ein
=2	=2
4a-	Blick
8a-	von
4dd-	dei-
8a-	-nen
=3	=3
4f	Au-
8f	-gen
4a-	in
8a-	die
=4	=4
4dd-	mei-
8dd-}	-nen,}
4r	.
{8cc-	{ein
=5	=5
4b-	Kuss
8b-	von
4ee-	dei-
8b-	-nem
=6	=6
4g-	Mund
8g-	auf
4b-	mei-
8b-	-nem
=7	=7
4ee-	Mun-
8ee-}	-de,}
4r	.
{8b-	{wer
=8	=8
4cc	da-
8b-	von
4a-	hat,
8cc	wie
=9	=9
4dd-	ich,
8b-	ge-
4a-	-wis-
8cc	-se
=10	=10
4dd-	Kun-
8a-}	-de,}
4r	.
{8cc	{mag
=11	=11
4dd	dem
8cc-	was
4b-	an-
8a-	-ders
=12	=12
4g-	wohl
8f	er-
4e-	-freu-
8b-	-lich
=13	=13
4.b-	schei-
4an}	-nen?}
8r	.
=14	=14
4r	.
8r	.
4r	.
{8a-	{Ent-
=15	=15
4a-	-fernt
8a-	von
4dd-	dir,
8a-	ent-
=16	=16
4f	-frem-
8f	-det
4a-	von
8a-	den
=17	=17
4dd-	Mei-
8dd-}	-nen,}
4r	.
{8cc-	{fu2hr
=18	=18
4b-	ich
8b-	stets
4ee-	die
8b-	Ge-
=19	=19
4g-	-dan-
8g-	-ken
4b-	in
8b-	die
=20	=20
4ee-	Run-
8ee-}	-de,}
4r	.
{8dd-	{und
=21	=21
4cc	im-
8b-	-mer
4a-	tref-
8cc	-fen
=23	=23
4dd-	sie
8b-	auf
4a-	je-
8cc	-ne
=24	=24
(4dd-	Stun-
8ee-)	|
4ee-}	-de,}
{8f	{die
=25	=25
4f	ein-
8ddn	-zi-
4b-	-ge:
8a-	da
=26	=26
4a-	fang
8g-	ich
4g-	an
8f	zu
=27	=27
4f	wei-
8en}	-nen.}
4r	.
8r	.
=28	=28
4r	.
8r	.
4r	.
{8f	{Die
=29	=29
4b-	Tra2-
8an	-ne
4gn	trock-
8f	-net
=30	=30
4cc	wie-
8b-	-der
4ddn	un-
8cc	-ver-
=31	=31
4.b-	se-
4an}	-hens:}
{8f	{Er
=32	=32
4a-	liebt
8a-	ja,
4a-	denk
8a-	ich,
=33	=33
4a-	her
8gn	in
4ee-	die-
8cc	-se
=35	=35
4.b-	Stil-
4an}	-le,}
{8cc	{und
=37	=37
4cc	soll-
8cc	-test
4dd-	du
8dd-	nicht
=38	=38
4dd-	in
8dd-	die
4gg-	Fer-
8ee-	-ne
=39	=39
4.dd-	rei-
4cc}	-chen?}
8r	.
=43	=43
4r	.
8r	.
4r	.
{8a-	{Ver-
=44	=44
4dd-	-nimm
8cc	das
4b-	Lis-
8a-	-peln
=45	=45
4ee-	die-
8dd-	-ses
4f	Lie-
8ee-	-bes-
=46	=47
4.dd-	-we
4cc}	-hens;}
{8a-	{mein
=47	=47
4cc-	ein-
8cc-	-zig
4an	Glu2ck
8b-	auf
=48	=48
4dd-	Er-
8dd-	-den
4bn	ist
8ccn	dein
=49	=49
4.ee-	Wil-
4dd-}	-le,}
{8dd-	{dein
=50	=50
4ff	freund-
8ee-	-li-
4dd-	-cher
8cc-	zu
=51	=51
4.b-}	mir;}
4r	.
8r	.
=52	=52
4r	.
{8dd-	{gib
4ccn	mir
8b-	ein
=53	=53
4gn	Zei-
8a-}	-chen!}
4r	.
8r	.
*-	*-
